austria/municipalities/41736.svg

<?xml version="1.0" encoding="UTF-8"?>
<!DOCTYPE svg PUBLIC "-//W3C//DTD SVG 1.1//EN" "http://www.w3.org/Graphics/SVG/1.1/DTD/svg11.dtd">
<svg xmlns="http://www.w3.org/2000/svg" version="1.1" width="166px" height="207px" style="shape-rendering:geometricPrecision; text-rendering:geometricPrecision; image-rendering:optimizeQuality; fill-rule:evenodd; clip-rule:evenodd" xmlns:xlink="http://www.w3.org/1999/xlink">
<g><path style="opacity:1" fill="#000000" d="M -0.5,-0.5 C 54.8333,-0.5 110.167,-0.5 165.5,-0.5C 165.5,44.1667 165.5,88.8333 165.5,133.5C 157.503,172.498 134.169,196.831 95.5,206.5C 86.8333,206.5 78.1667,206.5 69.5,206.5C 29.593,196.928 6.25968,171.928 -0.5,131.5C -0.5,87.5 -0.5,43.5 -0.5,-0.5 Z"/></g>
<g><path style="opacity:1" fill="#00612a" d="M 3.5,3.5 C 56.1667,3.5 108.833,3.5 161.5,3.5C 161.667,47.8346 161.5,92.1679 161,136.5C 160.784,138.384 160.117,140.051 159,141.5C 133.664,113.717 102.164,102.55 64.5,108C 41.0801,112.46 21.5801,123.626 6,141.5C 5.02655,139.608 4.35989,137.608 4,135.5C 3.50001,91.5013 3.33334,47.5013 3.5,3.5 Z"/></g>
<g><path style="opacity:1" fill="#000000" d="M 76.5,7.5 C 80.7675,7.20299 84.9341,7.53632 89,8.5C 87.7209,13.9368 87.2209,19.6035 87.5,25.5C 93.2033,26.4434 98.2033,25.11 102.5,21.5C 103.833,27.1667 103.833,32.8333 102.5,38.5C 98.2827,34.7913 93.2827,33.4579 87.5,34.5C 87.5,37.8333 87.5,41.1667 87.5,44.5C 94.8409,44.6663 102.174,44.4997 109.5,44C 110.875,41.5228 112.709,40.6894 115,41.5C 115.667,46.5 115.667,51.5 115,56.5C 114.586,56.9574 114.086,57.2907 113.5,57.5C 111.918,55.4146 109.918,53.9146 107.5,53C 100.842,52.5004 94.175,52.3337 87.5,52.5C 87.3334,67.1705 87.5001,81.8371 88,96.5C 89.3681,97.9931 89.5348,99.4931 88.5,101C 84.1794,101.499 79.8461,101.666 75.5,101.5C 75.3118,99.8967 75.8118,98.5634 77,97.5C 77.4999,82.5037 77.6666,67.5037 77.5,52.5C 70.825,52.3337 64.1583,52.5004 57.5,53C 55.0639,54.1015 52.8972,55.6015 51,57.5C 49.4372,52.2825 49.1038,46.9491 50,41.5C 52.2912,40.6894 54.1246,41.5228 55.5,44C 62.8258,44.4997 70.1591,44.6663 77.5,44.5C 77.5,41.1667 77.5,37.8333 77.5,34.5C 71.7173,33.4579 66.7173,34.7913 62.5,38.5C 61.914,38.2907 61.414,37.9574 61,37.5C 60.3333,32.5 60.3333,27.5 61,22.5C 63.2912,21.6894 65.1246,22.5228 66.5,25C 70.1516,25.4986 73.8183,25.6653 77.5,25.5C 78.0242,20.086 77.3575,14.9193 75.5,10C 75.7432,9.09789 76.0766,8.26456 76.5,7.5 Z"/></g>
<g><path style="opacity:1" fill="#fefffe" d="M 77.5,10.5 C 80.6868,9.19438 84.0202,9.19438 87.5,10.5C 85.6542,15.9753 84.9875,21.6419 85.5,27.5C 90.5988,27.8254 95.5988,27.3254 100.5,26C 101.126,25.2496 101.626,24.4162 102,23.5C 102.667,27.5 102.667,31.5 102,35.5C 101.097,34.2986 99.9308,33.4652 98.5,33C 94.1794,32.501 89.8461,32.3343 85.5,32.5C 85.5,37.1667 85.5,41.8333 85.5,46.5C 94.2498,46.9099 102.916,46.4099 111.5,45C 112.126,44.2496 112.626,43.4162 113,42.5C 113.667,46.5 113.667,50.5 113,54.5C 112.167,53.6667 111.333,52.8333 110.5,52C 102.173,51.5003 93.84,51.3336 85.5,51.5C 85.3334,66.5037 85.5001,81.5037 86,96.5C 86.3742,97.4162 86.8742,98.2496 87.5,99C 84.1667,99.6667 80.8333,99.6667 77.5,99C 78.1258,98.2496 78.6258,97.4162 79,96.5C 79.4999,81.5037 79.6666,66.5037 79.5,51.5C 71.16,51.3336 62.8267,51.5003 54.5,52C 53.6667,52.8333 52.8333,53.6667 52,54.5C 51.3333,50.8333 51.3333,47.1667 52,43.5C 53.1711,44.8932 54.6711,45.7265 56.5,46C 64.1594,46.4997 71.8261,46.6664 79.5,46.5C 79.5,41.8333 79.5,37.1667 79.5,32.5C 74.7863,32.1734 70.1196,32.5067 65.5,33.5C 64.7579,34.2868 63.9246,34.9535 63,35.5C 62.1747,31.7887 62.3414,28.122 63.5,24.5C 64.5904,25.727 65.9238,26.5604 67.5,27C 71.4862,27.4988 75.4862,27.6655 79.5,27.5C 79.6658,22.8215 79.4992,18.1548 79,13.5C 78.7679,12.2625 78.2679,11.2625 77.5,10.5 Z"/></g>
<g><path style="opacity:1" fill="#fea700" d="M 71.5,109.5 C 104.913,107.298 133.08,118.298 156,142.5C 158.698,144.911 159.032,147.577 157,150.5C 138.141,126.737 113.475,114.404 83,113.5C 52.2836,114.397 27.2836,126.73 8,150.5C 7.72662,148.899 7.22662,147.399 6.5,146C 23.5204,125.491 45.187,113.325 71.5,109.5 Z"/></g>
<g><path style="opacity:1" fill="#fea700" d="M 71.5,123.5 C 80.2354,123.124 88.9021,123.624 97.5,125C 111.585,130.112 111.918,135.779 98.5,142C 88.1582,143.97 77.8249,143.97 67.5,142C 63.7926,141.064 60.6259,139.231 58,136.5C 56.877,133.044 57.7104,130.21 60.5,128C 64.1574,126.178 67.8241,124.678 71.5,123.5 Z"/></g>
<g><path style="opacity:1" fill="#000000" d="M 73.5,126.5 C 81.5607,126.179 89.5607,126.679 97.5,128C 101.77,128.912 103.604,131.412 103,135.5C 100.228,137.761 97.0618,139.261 93.5,140C 85.1125,140.831 76.7791,140.497 68.5,139C 59.8509,135.785 59.5176,132.118 67.5,128C 69.7078,127.809 71.7078,127.309 73.5,126.5 Z"/></g>
<g><path style="opacity:1" fill="#fea700" d="M 75.5,128.5 C 82.5473,128.337 89.5473,128.837 96.5,130C 98.5547,130.687 100.221,131.854 101.5,133.5C 99.0046,135.843 96.0046,137.343 92.5,138C 85.5,138.667 78.5,138.667 71.5,138C 68.2006,137.246 65.5339,135.579 63.5,133C 67.1868,130.375 71.1868,128.875 75.5,128.5 Z"/></g>
<g><path style="opacity:1" fill="#fefffe" d="M -0.5,131.5 C 6.25968,171.928 29.593,196.928 69.5,206.5C 46.1667,206.5 22.8333,206.5 -0.5,206.5C -0.5,181.5 -0.5,156.5 -0.5,131.5 Z"/></g>
<g><path style="opacity:1" fill="#fefffe" d="M 165.5,133.5 C 165.5,157.833 165.5,182.167 165.5,206.5C 142.167,206.5 118.833,206.5 95.5,206.5C 134.169,196.831 157.503,172.498 165.5,133.5 Z"/></g>
<g><path style="opacity:1" fill="#fea700" d="M 59.5,140.5 C 66.4965,144.83 74.1631,146.497 82.5,145.5C 90.6812,146.527 98.1812,144.86 105,140.5C 106.632,142.027 106.799,143.693 105.5,145.5C 103.224,146.213 100.891,146.713 98.5,147C 101.341,148.765 104.174,148.598 107,146.5C 107.333,146.833 107.667,147.167 108,147.5C 108.667,151.5 108.667,155.5 108,159.5C 103.762,161.037 99.5953,162.704 95.5,164.5C 96,164.833 96.5,165.167 97,165.5C 100.021,163.993 103.188,162.993 106.5,162.5C 107.011,168.482 104.345,171.982 98.5,173C 100.112,173.72 101.612,173.554 103,172.5C 101.764,178.024 100.764,183.691 100,189.5C 99.5,190 99,190.5 98.5,191C 88.9283,193.85 79.2616,194.183 69.5,192C 65.2637,191.257 63.5971,188.757 64.5,184.5C 69.1879,185.468 73.8545,185.468 78.5,184.5C 73.544,183.506 68.544,183.173 63.5,183.5C 63.2767,180.216 62.6101,177.049 61.5,174C 63.4432,174.305 65.4432,174.305 67.5,174C 65.4062,172.648 63.0728,172.148 60.5,172.5C 59.6494,168.435 58.4827,164.435 57,160.5C 56.3333,157.833 56.3333,155.167 57,152.5C 59.9172,154.393 63.0838,154.893 66.5,154C 63.3634,153.399 60.3634,152.399 57.5,151C 56.1514,149.365 56.3181,147.865 58,146.5C 62.8446,149.151 68.0112,149.984 73.5,149C 69.0566,148.472 64.7232,147.472 60.5,146C 58.3652,144.444 58.0319,142.611 59.5,140.5 Z"/></g>
<g><path style="opacity:1" fill="#000000" d="M 70.5,154.5 C 77.5257,155.341 84.5257,155.674 91.5,155.5C 88,155.833 84.5,156.167 81,156.5C 77.0982,156.488 73.5982,155.821 70.5,154.5 Z"/></g>
<g><path style="opacity:1" fill="#000000" d="M 77.5,163.5 C 80.7216,163.108 83.7216,163.608 86.5,165C 85,165.167 83.5,165.333 82,165.5C 80.0145,165.431 78.5145,164.765 77.5,163.5 Z"/></g>
<g><path style="opacity:1" fill="#000000" d="M 87.5,163.5 C 89.288,163.215 90.9547,163.548 92.5,164.5C 91.6667,164.833 90.8333,165.167 90,165.5C 88.6244,165.316 87.7911,164.649 87.5,163.5 Z"/></g>
<g><path style="opacity:1" fill="#000000" d="M 96.5,172.5 C 97.6921,173.566 97.3588,174.399 95.5,175C 93.5,175.667 91.5,175.667 89.5,175C 91.8329,173.957 94.1663,173.124 96.5,172.5 Z"/></g>
<g><path style="opacity:1" fill="#000000" d="M 69.5,173.5 C 73.3751,173.085 77.0418,173.585 80.5,175C 78.6667,175.167 76.8333,175.333 75,175.5C 72.7047,175.453 70.8714,174.787 69.5,173.5 Z"/></g>
<g><path style="opacity:1" fill="#000000" d="M 80.5,183.5 C 82.604,183.201 84.604,183.534 86.5,184.5C 84.2351,185.647 81.9018,185.814 79.5,185C 80.056,184.617 80.3893,184.117 80.5,183.5 Z"/></g>
</svg>

<svg xmlns="http://www.w3.org/2000/svg" width="166" height="207" style="shape-rendering:geometricPrecision;text-rendering:geometricPrecision;image-rendering:optimizeQuality;fill-rule:evenodd;clip-rule:evenodd"><path style="opacity:1" d="M-.5-.5h166v134c-7.997 38.998-31.331 63.331-70 73h-26c-39.907-9.572-63.24-34.572-70-75V-.5z"/><path style="opacity:1" fill="#00612a" d="M3.5 3.5h158c.167 44.335 0 88.668-.5 133-.216 1.884-.883 3.551-2 5-25.336-27.783-56.836-38.95-94.5-33.5-23.42 4.46-42.92 15.626-58.5 33.5a20.623 20.623 0 0 1-2-6c-.5-43.999-.667-87.999-.5-132z"/><path style="opacity:1" d="M76.5 7.5c4.267-.297 8.434.036 12.5 1-1.28 5.437-1.78 11.104-1.5 17 5.703.943 10.703-.39 15-4 1.333 5.667 1.333 11.333 0 17-4.217-3.709-9.217-5.042-15-4v10c7.34.166 14.674 0 22-.5 1.375-2.477 3.209-3.31 5.5-2.5.667 5 .667 10 0 15-.414.457-.914.79-1.5 1-1.582-2.085-3.582-3.585-6-4.5-6.658-.5-13.325-.666-20-.5-.167 14.67 0 29.337.5 44 1.368 1.493 1.535 2.993.5 4.5a84.9 84.9 0 0 1-13 .5c-.188-1.603.312-2.937 1.5-4 .5-14.996.667-29.996.5-45-6.675-.166-13.342 0-20 .5a21.836 21.836 0 0 0-6.5 4.5c-1.563-5.218-1.896-10.55-1-16 2.291-.81 4.125.023 5.5 2.5 7.326.5 14.66.666 22 .5v-10c-5.783-1.042-10.783.291-15 4a3.646 3.646 0 0 1-1.5-1c-.667-5-.667-10 0-15 2.291-.81 4.125.023 5.5 2.5a60.94 60.94 0 0 0 11 .5c.524-5.414-.142-10.58-2-15.5.243-.902.577-1.735 1-2.5z"/><path style="opacity:1" fill="#fefffe" d="M77.5 10.5c3.187-1.306 6.52-1.306 10 0-1.846 5.475-2.513 11.142-2 17a45.882 45.882 0 0 0 15-1.5 9.457 9.457 0 0 0 1.5-2.5c.667 4 .667 8 0 12a6.977 6.977 0 0 0-3.5-2.5 84.938 84.938 0 0 0-13-.5v14c8.75.41 17.416-.09 26-1.5a9.457 9.457 0 0 0 1.5-2.5c.667 4 .667 8 0 12l-2.5-2.5c-8.327-.5-16.66-.666-25-.5-.167 15.004 0 30.004.5 45 .374.916.874 1.75 1.5 2.5a25.249 25.249 0 0 1-10 0 9.468 9.468 0 0 0 1.5-2.5c.5-14.996.667-29.996.5-45-8.34-.166-16.673 0-25 .5L52 54.5a30.499 30.499 0 0 1 0-11c1.171 1.393 2.671 2.227 4.5 2.5 7.66.5 15.326.666 23 .5v-14a49.873 49.873 0 0 0-14 1 11.383 11.383 0 0 1-2.5 2c-.825-3.711-.659-7.378.5-11a8.19 8.19 0 0 0 4 2.5c3.986.499 7.986.666 12 .5.166-4.678 0-9.345-.5-14-.232-1.238-.732-2.238-1.5-3z"/><path style="opacity:1" fill="#fea700" d="M71.5 109.5c33.413-2.202 61.58 8.798 84.5 33 2.698 2.411 3.032 5.077 1 8-18.859-23.763-43.525-36.096-74-37-30.716.897-55.716 13.23-75 37a15.278 15.278 0 0 0-1.5-4.5c17.02-20.509 38.687-32.675 65-36.5z"/><path style="opacity:1" fill="#fea700" d="M71.5 123.5c8.735-.376 17.402.124 26 1.5 14.085 5.112 14.418 10.779 1 17-10.342 1.97-20.675 1.97-31 0-3.707-.936-6.874-2.769-9.5-5.5-1.123-3.456-.29-6.29 2.5-8.5a78.172 78.172 0 0 1 11-4.5z"/><path style="opacity:1" d="M73.5 126.5c8.06-.321 16.06.179 24 1.5 4.27.912 6.104 3.412 5.5 7.5-2.772 2.261-5.938 3.761-9.5 4.5a89.975 89.975 0 0 1-25-1c-8.65-3.215-8.982-6.882-1-11 2.208-.191 4.208-.691 6-1.5z"/><path style="opacity:1" fill="#fea700" d="M75.5 128.5c7.047-.163 14.047.337 21 1.5 2.055.687 3.721 1.854 5 3.5-2.495 2.343-5.495 3.843-9 4.5-7 .667-14 .667-21 0-3.3-.754-5.966-2.421-8-5 3.687-2.625 7.687-4.125 12-4.5z"/><path style="opacity:1" fill="#fefffe" d="M-.5 131.5c6.76 40.428 30.093 65.428 70 75h-70v-75zM165.5 133.5v73h-70c38.669-9.669 62.003-34.002 70-73z"/><path style="opacity:1" fill="#fea700" d="M59.5 140.5c6.996 4.33 14.663 5.997 23 5 8.181 1.027 15.681-.64 22.5-5 1.632 1.527 1.799 3.193.5 5a38.852 38.852 0 0 1-7 1.5c2.841 1.765 5.674 1.598 8.5-.5l1 1c.667 4 .667 8 0 12a205.922 205.922 0 0 0-12.5 5l1.5 1a31.57 31.57 0 0 1 9.5-3c.511 5.982-2.155 9.482-8 10.5 1.612.72 3.112.554 4.5-.5a193.207 193.207 0 0 0-3 17l-1.5 1.5c-9.572 2.85-19.238 3.183-29 1-4.236-.743-5.903-3.243-5-7.5 4.688.968 9.355.968 14 0a57.15 57.15 0 0 0-15-1 34.462 34.462 0 0 0-2-9.5c1.943.305 3.943.305 6 0-2.094-1.352-4.427-1.852-7-1.5a81.093 81.093 0 0 0-3.5-12 16.25 16.25 0 0 1 0-8c2.917 1.893 6.084 2.393 9.5 1.5a35.727 35.727 0 0 1-9-3c-1.349-1.635-1.182-3.135.5-4.5 4.845 2.651 10.011 3.484 15.5 2.5a61.392 61.392 0 0 1-13-3c-2.135-1.556-2.468-3.389-1-5.5z"/><path style="opacity:1" d="M70.5 154.5a145.86 145.86 0 0 0 21 1l-10.5 1c-3.902-.012-7.402-.679-10.5-2zM77.5 163.5c3.222-.392 6.222.108 9 1.5l-4.5.5c-1.986-.069-3.486-.735-4.5-2zM87.5 163.5c1.788-.285 3.455.048 5 1l-2.5 1c-1.376-.184-2.209-.851-2.5-2zM96.5 172.5c1.192 1.066.859 1.899-1 2.5-2 .667-4 .667-6 0a46.706 46.706 0 0 1 7-2.5zM69.5 173.5c3.875-.415 7.542.085 11 1.5l-5.5.5c-2.295-.047-4.129-.713-5.5-2zM80.5 183.5a9.86 9.86 0 0 1 6 1c-2.265 1.147-4.598 1.314-7 .5.556-.383.89-.883 1-1.5z"/></svg>
